assets/Title Start.svg

<svg version="1.1" width="177" height="205" viewBox="4 -1 177 205" xmlns="http://www.w3.org/2000/svg" xmlns:xlink="http://www.w3.org/1999/xlink">
  <defs>
    <linearGradient id="grad_1" y2="1">
      <stop offset="0" stop-color="#E5E5E5" stop-opacity="1"/>
      <stop offset="1" stop-color="#29D201" stop-opacity="1"/>
    </linearGradient>
    <linearGradient id="grad_2" y2="1">
      <stop offset="0" stop-color="#CCFFFF" stop-opacity="1"/>
      <stop offset="1" stop-color="#CCFFFF" stop-opacity="0"/>
    </linearGradient>
  </defs>
  <!-- Exported by Scratch - http://scratch.mit.edu/ -->
  <g id="ID0.1423493572510779">
    <path id="ID0.007662700489163399" fill="url(#grad_1)" stroke="none" stroke-linecap="round" d="M 288 80.500 L 309 99 L 323.500 89 L 360.500 106.500 L 375.500 126.500 L 252 123.500 L 288 80.500 Z " transform="matrix(1, 0, 0, 1, -225.5, -80)"/>
    <g id="ID0.7721932241693139">
      <g id="ID0.8094986784271896">
        <path id="ID0.7722679218277335" fill="#663B00" stroke="none" stroke-linecap="round" d="M 213 161.750 L 220.200 162.400 L 224.850 163 L 234.700 162.500 L 245.600 164.500 L 253.200 163.400 L 263.600 161.100 L 270.100 160.750 L 269.200 169 L 268.100 171.900 L 267.600 170 L 265.700 175.100 L 264.600 180 L 262.850 180.400 L 262.100 183.500 L 258.850 185.500 L 258.350 190 L 256.600 193.100 L 253.100 194.600 L 251.500 199.600 L 250.350 195.900 L 247.850 202.750 L 243.700 193.750 L 242.200 193.400 L 239.500 186.600 L 237.200 187.250 L 236.850 189.400 L 237 192.250 L 234.600 189 L 233.100 185.900 L 228.200 182.750 L 226.550 184.400 L 225.350 178.600 L 223.650 179.500 L 223.100 173.600 L 218.850 170.200 L 215.600 167.250 L 213 161.750 Z " transform="matrix(2.7182888984680176, 0, 0, 3.6607143878936768, -566.45, -538.75)"/>
        <path id="ID0.7011389513500035" fill="#32FF02" stroke="none" d="M 227.400 160.100 L 229.500 157.100 L 232.400 155.850 L 236.100 155.600 L 243.100 153.200 L 250.600 151.600 L 253.600 155.350 L 261.750 155.350 L 265.250 157.850 L 269.750 157.700 L 271.750 159.700 L 270.100 165.700 L 269.250 162.850 L 260.600 161.850 L 257.600 163.100 L 258.400 162 L 251.500 163.350 L 247.900 167.600 L 246.400 165 L 243.250 166.100 L 236.100 161.200 L 227.400 160.100 Z " transform="matrix(3.6607143878936768, 0, 0, 3.6607143878936768, -822, -532.75)"/>
        <path id="ID0.28201444121077657" fill="none" stroke="url(#grad_2)" stroke-width="2" stroke-linecap="round" d="M 242.500 161.300 L 242.400 195.650 " transform="matrix(3.6607143878936768, 0, 0, 3.6607143878936768, -735.4, -542.05)"/>
      </g>
      <text id="ID0.1717975432984531" fill="#666666" x="227" y="180.5" text-anchor="start" font-family="Gloria" font-size="22" transform="matrix(1.9953112602233887, 0, 0, 1.9953112602233887, 0, 51.3)">Skylands</text>
      <text id="ID0.7356719826348126" fill="#7F7F7F" x="240.75" y="185.6" text-anchor="start" font-family="Gloria" font-size="22" transform="matrix(0.6197423934936523, 0, 0, 0.6197423934936523, 20.85, 112.45)">Worlds from above</text>
    </g>
    <path id="ID0.5964665007777512" fill="#FFFFFF" stroke="none" stroke-linecap="round" d="M 225.900 67.150 L 232.500 59.300 L 240.900 66.800 L 247.500 72.650 L 236.100 69.500 L 228.900 70.800 L 225.900 67.150 Z " transform="matrix(1, 0, 0, 1, -170, -59)"/>
    <path id="ID0.6264040754176676" fill="#FFFFFF" stroke="none" stroke-linecap="round" d="M 268.100 67.400 L 277.250 72.150 L 280.600 75.300 L 273.400 74.300 L 271.900 75.900 L 268.600 73.500 L 265.750 73.400 L 263.400 74.150 L 260.600 75.650 L 261.100 72.800 L 268.100 67.400 Z " transform="matrix(1, 0, 0, 1, -170, -59)"/>
  </g>
</svg>

<?xml version="1.0" encoding="UTF-8" standalone="no"?>
<svg
   xmlns:dc="http://purl.org/dc/elements/1.1/"
   xmlns:cc="http://creativecommons.org/ns#"
   xmlns:rdf="http://www.w3.org/1999/02/22-rdf-syntax-ns#"
   xmlns:svg="http://www.w3.org/2000/svg"
   xmlns="http://www.w3.org/2000/svg"
   xmlns:sodipodi="http://sodipodi.sourceforge.net/DTD/sodipodi-0.dtd"
   xmlns:inkscape="http://www.inkscape.org/namespaces/inkscape"
   version="1.1"
   width="177"
   height="205"
   viewBox="4 -1 177 205"
   id="svg25"
   sodipodi:docname="Title Start.svg"
   inkscape:version="0.92.1 r15371">
  <metadata
     id="metadata29">
    <rdf:RDF>
      <cc:Work
         rdf:about="">
        <dc:format>image/svg+xml</dc:format>
        <dc:type
           rdf:resource="http://purl.org/dc/dcmitype/StillImage" />
      </cc:Work>
    </rdf:RDF>
  </metadata>
  <sodipodi:namedview
     pagecolor="#ffffff"
     bordercolor="#666666"
     borderopacity="1"
     objecttolerance="10"
     gridtolerance="10"
     guidetolerance="10"
     inkscape:pageopacity="0"
     inkscape:pageshadow="2"
     inkscape:window-width="1366"
     inkscape:window-height="705"
     id="namedview27"
     showgrid="false"
     inkscape:zoom="3.2561405"
     inkscape:cx="151.02353"
     inkscape:cy="98.185939"
     inkscape:window-x="-8"
     inkscape:window-y="-8"
     inkscape:window-maximized="1"
     inkscape:current-layer="svg25" />
  <defs
     id="defs12">
    <linearGradient
       id="grad_1"
       y2="207.27412"
       gradientTransform="matrix(1.6385306,0,0,0.6103029,-225.5,-80)"
       x1="153.79633"
       y1="131.90172"
       x2="229.16874"
       gradientUnits="userSpaceOnUse">
      <stop
         offset="0"
         stop-color="#E5E5E5"
         stop-opacity="1"
         id="stop2" />
      <stop
         offset="1"
         stop-color="#29D201"
         stop-opacity="1"
         id="stop4" />
    </linearGradient>
    <linearGradient
       id="grad_2"
       y2="47.254366"
       gradientTransform="scale(0.2402794,4.1618216)"
       x1="1004.6632"
       y1="38.513366"
       x2="1013.4042"
       gradientUnits="userSpaceOnUse">
      <stop
         offset="0"
         stop-color="#CCFFFF"
         stop-opacity="1"
         id="stop7" />
      <stop
         offset="1"
         stop-color="#CCFFFF"
         stop-opacity="0"
         id="stop9" />
    </linearGradient>
  </defs>
  <!-- Exported by Scratch - http://scratch.mit.edu/ -->
  <path
     inkscape:connector-curvature="0"
     style="fill:url(#grad_1);stroke:none;stroke-linecap:round"
     d="M 62.5,0.5 83.5,19 98,9 l 37,17.5 15,20 -123.5,-3 z"
     id="ID0.007662700489163399" />
  <g
     id="ID0.8094986784271896">
    <path
       id="ID0.7722679218277335"
       d="m 213,161.75 7.2,0.65 4.65,0.6 9.85,-0.5 10.9,2 7.6,-1.1 10.4,-2.3 6.5,-0.35 -0.9,8.25 -1.1,2.9 -0.5,-1.9 -1.9,5.1 -1.1,4.9 -1.75,0.4 -0.75,3.1 -3.25,2 -0.5,4.5 -1.75,3.1 -3.5,1.5 -1.6,5 -1.15,-3.7 -2.5,6.85 -4.15,-9 -1.5,-0.35 -2.7,-6.8 -2.3,0.65 -0.35,2.15 0.15,2.85 -2.4,-3.25 -1.5,-3.1 -4.9,-3.15 -1.65,1.65 -1.2,-5.8 -1.7,0.9 -0.55,-5.9 -4.25,-3.4 -3.25,-2.95 z"
       transform="matrix(2.7182889,0,0,3.6607144,-566.45,-538.75)"
       inkscape:connector-curvature="0"
       style="fill:#663b00;stroke:none;stroke-linecap:round" />
    <path
       id="ID0.7011389513500035"
       d="m 227.4,160.1 2.1,-3 2.9,-1.25 3.7,-0.25 7,-2.4 7.5,-1.6 3,3.75 h 8.15 l 3.5,2.5 4.5,-0.15 2,2 -1.65,6 -0.85,-2.85 -8.65,-1 -3,1.25 0.8,-1.1 -6.9,1.35 -3.6,4.25 -1.5,-2.6 -3.15,1.1 -7.15,-4.9 z"
       transform="matrix(3.6607144,0,0,3.6607144,-822,-532.75)"
       inkscape:connector-curvature="0"
       style="fill:#32ff02;stroke:none" />
    <path
       id="ID0.28201444121077657"
       d="m 242.5,161.3 -0.1,34.35"
       transform="matrix(3.6607144,0,0,3.6607144,-735.4,-542.05)"
       style="fill:none;stroke:url(#grad_2);stroke-width:2;stroke-linecap:round"
       inkscape:connector-curvature="0" />
  </g>
  <text
     id="ID0.1717975432984531"
     x="-6.5039659"
     y="108.94833"
     font-size="22"
     style="font-size:43.89684677px;font-family:Gloria;text-anchor:start;fill:#666666;stroke-width:1.99531126">Skylands</text>
  <text
     id="ID0.7356719826348126"
     x="29.395657"
     y="128.89124"
     font-size="22"
     style="font-size:13.63433266px;font-family:Gloria;text-anchor:start;fill:#7f7f7f;stroke-width:0.61974239">Worlds from above</text>
  <path
     style="fill:#ffffff;stroke:none;stroke-linecap:round"
     inkscape:connector-curvature="0"
     d="m 55.9,8.15 6.6,-7.85 8.4,7.5 6.6,5.85 -11.4,-3.15 -7.2,1.3 z"
     id="ID0.5964665007777512" />
  <path
     style="fill:#ffffff;stroke:none;stroke-linecap:round"
     inkscape:connector-curvature="0"
     d="m 98.1,8.4 9.15,4.75 3.35,3.15 -7.2,-1 -1.5,1.6 -3.3,-2.4 -2.85,-0.1 -2.35,0.75 -2.8,1.5 0.5,-2.85 z"
     id="ID0.6264040754176676" />
</svg>
